flaticon/real-estate/real-estate-5.svg

<svg xmlns="http://www.w3.org/2000/svg" width="32" height="32" viewBox="0 0 24 24">
    <path d="M11.160156 13.359375C10.921875 13.121094 10.640625 13 10.320312 12.960938L8.726562 12.8125C8.539062 11.675781 7.546875 10.800781 6.359375 10.800781 5.304688 10.800781 4.417969 11.460938 4.082031 12.421875 2.910156 12.578125 2 13.585938 2 14.800781 2 15.507812 2.308594 16.144531 2.800781 16.585938L2.800781 20.558594C2.800781 20.679688 2.839844 20.800781 2.921875 20.878906L4.121094 21.921875C4.199219 21.960938 4.320312 22 4.398438 22 4.480469 22 4.601562 21.960938 4.640625 21.921875L5.839844 20.878906C5.921875 20.800781 5.960938 20.679688 5.960938 20.558594 5.960938 20.441406 5.921875 20.320312 5.800781 20.238281L5.398438 19.960938 5.878906 19.480469C6.039062 19.320312 6.039062 19.082031 5.878906 18.921875L5.359375 18.398438 5.878906 17.878906C5.960938 17.800781 6 17.71875 6 17.601562L6 16.585938C6.300781 16.316406 6.53125 15.972656 6.667969 15.585938 6.890625 15.5625 7.109375 15.507812 7.3125 15.425781L7.359375 15.921875C7.398438 16.238281 7.519531 16.519531 7.761719 16.761719L10.679688 19.679688C10.761719 19.761719 10.839844 19.800781 10.960938 19.800781 11.039062 19.800781 11.160156 19.761719 11.238281 19.679688L14.078125 16.839844C14.238281 16.679688 14.238281 16.441406 14.078125 16.28125zM4.335938 13.203125C4.375 13.207031 4.417969 13.207031 4.457031 13.203125 5.292969 13.230469 5.972656 13.910156 6 14.75 5.652344 14.660156 5.355469 14.453125 5.121094 14.160156 5 14 4.71875 13.960938 4.558594 14.078125 4.398438 14.199219 4.359375 14.480469 4.480469 14.640625 4.804688 15.085938 5.285156 15.398438 5.824219 15.53125 5.554688 16.046875 5.019531 16.398438 4.398438 16.398438 3.519531 16.398438 2.800781 15.679688 2.800781 14.800781 2.800781 13.941406 3.484375 13.238281 4.335938 13.203125zM5.238281 17.441406L4.558594 18.121094C4.398438 18.28125 4.398438 18.519531 4.558594 18.679688L5.078125 19.199219 4.558594 19.71875C4.480469 19.800781 4.441406 19.921875 4.441406 20.039062 4.441406 20.160156 4.519531 20.238281 4.601562 20.320312L4.960938 20.558594 4.398438 21.039062 3.601562 20.359375 3.640625 20.359375 3.640625 17.078125C4.160156 17.28125 4.71875 17.28125 5.238281 17.078125zM6.796875 14.75C6.773438 13.640625 5.988281 12.710938 4.945312 12.464844 5.214844 11.9375 5.75 11.601562 6.359375 11.601562 7.136719 11.601562 7.789062 12.164062 7.929688 12.902344 7.796875 12.960938 7.671875 13.046875 7.558594 13.160156 7.320312 13.441406 7.160156 13.800781 7.199219 14.199219L7.234375 14.5625C7.097656 14.644531 6.953125 14.707031 6.796875 14.75zM10.921875 18.839844L8.28125 16.199219C8.199219 16.121094 8.121094 16 8.121094 15.878906L7.960938 14.160156C7.960938 14 8 13.878906 8.121094 13.761719 8.238281 13.640625 8.359375 13.601562 8.480469 13.601562 8.519531 13.601562 8.519531 13.601562 8.519531 13.601562L10.238281 13.761719C10.359375 13.761719 10.480469 13.839844 10.558594 13.921875L13.199219 16.558594zM15.601562 16.800781L19.199219 16.800781C19.441406 16.800781 19.601562 16.640625 19.601562 16.398438 19.601562 16.160156 19.441406 16 19.199219 16L15.601562 16C15.359375 16 15.199219 16.160156 15.199219 16.398438 15.199219 16.640625 15.359375 16.800781 15.601562 16.800781zM15.601562 15.199219L16.398438 15.199219C16.640625 15.199219 16.800781 15.039062 16.800781 14.800781 16.800781 14.558594 16.640625 14.398438 16.398438 14.398438L15.601562 14.398438C15.359375 14.398438 15.199219 14.558594 15.199219 14.800781 15.199219 15.039062 15.359375 15.199219 15.601562 15.199219zM17.601562 14.800781C17.601562 15.039062 17.761719 15.199219 18 15.199219L20.398438 15.199219C20.640625 15.199219 20.800781 15.039062 20.800781 14.800781 20.800781 14.558594 20.640625 14.398438 20.398438 14.398438L18 14.398438C17.761719 14.398438 17.601562 14.558594 17.601562 14.800781zM20.398438 17.601562L18 17.601562C17.761719 17.601562 17.601562 17.761719 17.601562 18 17.601562 18.238281 17.761719 18.398438 18 18.398438L20.398438 18.398438C20.640625 18.398438 20.800781 18.238281 20.800781 18 20.800781 17.761719 20.640625 17.601562 20.398438 17.601562zM15.601562 18.398438L16.398438 18.398438C16.640625 18.398438 16.800781 18.238281 16.800781 18 16.800781 17.761719 16.640625 17.601562 16.398438 17.601562L15.601562 17.601562C15.359375 17.601562 15.199219 17.761719 15.199219 18 15.199219 18.238281 15.359375 18.398438 15.601562 18.398438zM20.398438 19.199219L20 19.199219C19.761719 19.199219 19.601562 19.359375 19.601562 19.601562 19.601562 19.839844 19.761719 20 20 20L20.398438 20C20.640625 20 20.800781 19.839844 20.800781 19.601562 20.800781 19.359375 20.640625 19.199219 20.398438 19.199219zM18.398438 19.199219L15.601562 19.199219C15.359375 19.199219 15.199219 19.359375 15.199219 19.601562 15.199219 19.839844 15.359375 20 15.601562 20L18.398438 20C18.640625 20 18.800781 19.839844 18.800781 19.601562 18.800781 19.359375 18.640625 19.199219 18.398438 19.199219zM18.398438 19.199219"/>
    <path d="M10.121094 14.921875L9.320312 15.71875C9.160156 15.878906 9.160156 16.121094 9.320312 16.28125 9.398438 16.359375 9.480469 16.398438 9.601562 16.398438 9.71875 16.398438 9.800781 16.359375 9.878906 16.28125L10.679688 15.480469C10.839844 15.320312 10.839844 15.078125 10.679688 14.921875 10.519531 14.761719 10.28125 14.761719 10.121094 14.921875zM10.519531 17.480469C10.601562 17.558594 10.679688 17.601562 10.800781 17.601562 10.921875 17.601562 11 17.558594 11.078125 17.480469L11.878906 16.679688C12.039062 16.519531 12.039062 16.28125 11.878906 16.121094 11.71875 15.960938 11.480469 15.960938 11.320312 16.121094L10.519531 16.921875C10.359375 17.078125 10.359375 17.320312 10.519531 17.480469zM10.519531 17.480469"/>
    <path d="M 20.390625 4 C 20.753906 4.488281 21.332031 4.800781 22 4.800781 C 23.121094 4.800781 24 3.921875 24 2.800781 C 24 1.679688 23.121094 0.800781 22 0.800781 C 21.332031 0.800781 20.753906 1.113281 20.390625 1.601562 L 0.398438 1.601562 C 0.160156 1.601562 0 1.761719 0 2 L 0 3.601562 C 0 3.839844 0.160156 4 0.398438 4 L 4.398438 4 L 4.398438 5.601562 L 1.601562 5.601562 C 0.71875 5.601562 0 6.320312 0 7.199219 L 0 21.601562 C 0 22.480469 0.71875 23.199219 1.601562 23.199219 L 20.800781 23.199219 C 21.679688 23.199219 22.398438 22.480469 22.398438 21.601562 L 22.398438 7.199219 C 22.398438 6.320312 21.679688 5.601562 20.800781 5.601562 L 18 5.601562 L 18 4 Z M 22 1.601562 C 22.679688 1.601562 23.199219 2.121094 23.199219 2.800781 C 23.199219 3.480469 22.679688 4 22 4 C 21.570312 4 21.207031 3.792969 20.996094 3.46875 C 20.984375 3.445312 20.976562 3.421875 20.960938 3.398438 C 20.902344 3.304688 20.863281 3.207031 20.839844 3.109375 C 20.828125 3.070312 20.820312 3.03125 20.8125 2.988281 C 20.8125 2.988281 20.8125 2.984375 20.8125 2.984375 C 20.808594 2.964844 20.808594 2.949219 20.804688 2.929688 C 20.804688 2.925781 20.804688 2.917969 20.804688 2.914062 C 20.804688 2.898438 20.800781 2.882812 20.800781 2.867188 C 20.800781 2.84375 20.800781 2.820312 20.800781 2.800781 C 20.800781 2.78125 20.800781 2.757812 20.800781 2.738281 C 20.800781 2.738281 20.800781 2.738281 20.800781 2.734375 C 20.800781 2.714844 20.804688 2.695312 20.804688 2.679688 C 20.804688 2.675781 20.804688 2.667969 20.808594 2.664062 C 20.808594 2.65625 20.808594 2.648438 20.808594 2.640625 C 20.828125 2.492188 20.882812 2.347656 21 2.199219 C 21.03125 2.152344 21.050781 2.097656 21.058594 2.042969 C 21.273438 1.769531 21.609375 1.601562 22 1.601562 Z M 0.800781 2.398438 L 20.039062 2.398438 C 20.039062 2.402344 20.039062 2.40625 20.035156 2.410156 C 20 2.53125 20 2.683594 20 2.800781 C 20 2.917969 20 3.070312 20.035156 3.1875 C 20.039062 3.191406 20.039062 3.195312 20.039062 3.199219 L 0.800781 3.199219 Z M 20.800781 6.398438 C 21.238281 6.398438 21.601562 6.761719 21.601562 7.199219 L 21.601562 21.601562 C 21.601562 22.039062 21.238281 22.398438 20.800781 22.398438 L 1.601562 22.398438 C 1.160156 22.398438 0.800781 22.039062 0.800781 21.601562 L 0.800781 7.199219 C 0.800781 6.761719 1.160156 6.398438 1.601562 6.398438 L 4.398438 6.398438 L 4.398438 7.25 C 3.710938 7.429688 3.199219 8.058594 3.199219 8.800781 C 3.199219 9.679688 3.921875 10.398438 4.800781 10.398438 C 5.679688 10.398438 6.398438 9.679688 6.398438 8.800781 C 6.398438 8.058594 5.886719 7.429688 5.199219 7.25 L 5.199219 6.398438 L 17.199219 6.398438 L 17.199219 7.25 C 16.511719 7.429688 16 8.058594 16 8.800781 C 16 9.679688 16.71875 10.398438 17.601562 10.398438 C 18.480469 10.398438 19.199219 9.679688 19.199219 8.800781 C 19.199219 8.058594 18.6875 7.429688 18 7.25 L 18 6.398438 Z M 4.800781 8.800781 C 5.039062 8.800781 5.199219 8.640625 5.199219 8.398438 L 5.199219 8.109375 C 5.4375 8.246094 5.601562 8.503906 5.601562 8.800781 C 5.601562 9.238281 5.238281 9.601562 4.800781 9.601562 C 4.359375 9.601562 4 9.238281 4 8.800781 C 4 8.503906 4.160156 8.246094 4.398438 8.109375 L 4.398438 8.398438 C 4.398438 8.640625 4.558594 8.800781 4.800781 8.800781 Z M 17.601562 8.800781 C 17.839844 8.800781 18 8.640625 18 8.398438 L 18 8.109375 C 18.238281 8.246094 18.398438 8.503906 18.398438 8.800781 C 18.398438 9.238281 18.039062 9.601562 17.601562 9.601562 C 17.160156 9.601562 16.800781 9.238281 16.800781 8.800781 C 16.800781 8.503906 16.960938 8.246094 17.199219 8.109375 L 17.199219 8.398438 C 17.199219 8.640625 17.359375 8.800781 17.601562 8.800781 Z M 17.199219 5.601562 L 5.199219 5.601562 L 5.199219 4 L 17.199219 4 Z M 17.199219 5.601562"/>
</svg>

<svg xmlns="http://www.w3.org/2000/svg" width="32" height="32" viewBox="0 0 24 24">
    <path d="M11.16 13.36a1.379 1.379 0 0 0-.84-.4l-1.593-.148a2.409 2.409 0 0 0-2.368-2.011c-1.054 0-1.941.66-2.277 1.62A2.406 2.406 0 0 0 2 14.802c0 .707.309 1.344.8 1.785v3.973c0 .12.04.242.122.32l1.2 1.043c.077.039.198.078.276.078.082 0 .204-.04.243-.078l1.199-1.043a.442.442 0 0 0 .12-.32.367.367 0 0 0-.16-.32l-.402-.278.48-.48a.385.385 0 0 0 0-.56l-.519-.523.52-.52A.353.353 0 0 0 6 17.603v-1.016c.3-.27.531-.613.668-1a2.4 2.4 0 0 0 .644-.16l.047.496c.04.316.16.598.403.84l2.918 2.918c.082.082.16.12.28.12.08 0 .2-.038.278-.12l2.84-2.84a.385.385 0 0 0 0-.559zm-6.824-.157c.039.004.082.004.121 0A1.603 1.603 0 0 1 6 14.75a1.654 1.654 0 0 1-.879-.59c-.121-.16-.402-.2-.562-.082a.432.432 0 0 0-.079.563c.325.445.805.757 1.344.89-.27.516-.804.867-1.426.867a1.602 1.602 0 0 1-1.597-1.597c0-.86.683-1.563 1.535-1.598zm.902 4.238l-.68.68a.385.385 0 0 0 0 .559l.52.52-.52.519a.47.47 0 0 0-.117.32c0 .121.079.2.16.281l.36.239-.563.48-.796-.68h.039v-3.28a2.17 2.17 0 0 0 1.597 0zm1.559-2.691a2.41 2.41 0 0 0-1.852-2.285c.27-.527.805-.863 1.414-.863.778 0 1.43.562 1.57 1.3a1.224 1.224 0 0 0-.37.258c-.239.281-.399.64-.36 1.04l.035.363a1.74 1.74 0 0 1-.437.187zm4.125 4.09l-2.64-2.64c-.083-.079-.16-.2-.16-.321L7.96 14.16c0-.16.039-.281.16-.398a.478.478 0 0 1 .36-.16h.039l1.718.16c.121 0 .242.078.32.16l2.641 2.637zm0 0M15.602 16.8h3.597c.242 0 .403-.16.403-.402 0-.238-.16-.398-.403-.398h-3.597c-.243 0-.403.16-.403.398 0 .243.16.403.403.403zm0 0M15.602 15.2h.796c.243 0 .403-.16.403-.4 0-.241-.16-.402-.403-.402h-.796c-.243 0-.403.16-.403.403 0 .238.16.398.403.398zm0 0M17.602 14.8c0 .24.16.4.398.4h2.398c.243 0 .403-.16.403-.4 0-.241-.16-.402-.403-.402H18c-.238 0-.398.16-.398.403zm0 0M20.398 17.602H18c-.238 0-.398.16-.398.398 0 .238.16.398.398.398h2.398c.243 0 .403-.16.403-.398 0-.238-.16-.398-.403-.398zm0 0M15.602 18.398h.796c.243 0 .403-.16.403-.398 0-.238-.16-.398-.403-.398h-.796c-.243 0-.403.16-.403.398 0 .238.16.398.403.398zm0 0M20.398 19.2H20c-.238 0-.398.16-.398.402 0 .238.16.398.398.398h.398c.243 0 .403-.16.403-.398 0-.243-.16-.403-.403-.403zm0 0M18.398 19.2h-2.796c-.243 0-.403.16-.403.402 0 .238.16.398.403.398h2.796c.243 0 .403-.16.403-.398 0-.243-.16-.403-.403-.403zm0 0"/>
    <path d="M10.121 14.922l-.8.797a.39.39 0 0 0 0 .562c.077.078.16.117.28.117.118 0 .2-.039.278-.117l.8-.8a.385.385 0 0 0 0-.56.385.385 0 0 0-.558 0zm0 0M10.52 17.48c.082.079.16.122.28.122a.36.36 0 0 0 .278-.122l.8-.8a.385.385 0 0 0 0-.559.385.385 0 0 0-.558 0l-.8.8a.385.385 0 0 0 0 .56zm0 0"/>
    <path d="M20.39 4c.364.488.942.8 1.61.8 1.121 0 2-.878 2-2 0-1.12-.879-2-2-2-.668 0-1.246.313-1.61.802H.399C.16 1.602 0 1.762 0 2v1.602C0 3.84.16 4 .398 4h4v1.602H1.602C.719 5.602 0 6.32 0 7.199v14.403c0 .878.719 1.597 1.602 1.597H20.8c.879 0 1.597-.719 1.597-1.597V7.199c0-.879-.718-1.597-1.597-1.597H18V4zM22 1.602c.68 0 1.2.52 1.2 1.199C23.2 3.48 22.68 4 22 4c-.43 0-.793-.207-1.004-.531-.012-.024-.02-.047-.035-.07a.97.97 0 0 1-.121-.29 1.1 1.1 0 0 1-.027-.12v-.005c-.004-.02-.004-.035-.008-.054v-.016c0-.016-.004-.031-.004-.047v-.066-.063-.004c0-.02.004-.039.004-.054 0-.004 0-.012.004-.016v-.023A.875.875 0 0 1 21 2.199a.38.38 0 0 0 .059-.156c.214-.273.55-.441.941-.441zM.8 2.398h19.24c0 .004 0 .008-.005.012C20 2.531 20 2.684 20 2.8a1.442 1.442 0 0 0 .04.4H.8zm20 4c.438 0 .802.364.802.801v14.403a.804.804 0 0 1-.801.796H1.6c-.44 0-.8-.359-.8-.796V7.199c0-.437.36-.8.8-.8h2.797v.851C3.711 7.43 3.2 8.059 3.2 8.8c0 .88.723 1.598 1.602 1.598.879 0 1.597-.718 1.597-1.597 0-.742-.511-1.371-1.199-1.551v-.852h12v.852C16.512 7.43 16 8.059 16 8.8c0 .88.719 1.598 1.602 1.598.878 0 1.597-.718 1.597-1.597 0-.742-.512-1.371-1.199-1.551v-.852zm-16 2.403c.24 0 .4-.16.4-.403V8.11a.798.798 0 0 1 .402.692c0 .437-.364.8-.801.8a.804.804 0 0 1-.801-.8c0-.297.16-.555.398-.692v.29c0 .242.16.402.403.402zm12.802 0c.238 0 .398-.16.398-.403V8.11a.795.795 0 0 1 .398.692c0 .437-.359.8-.796.8a.804.804 0 0 1-.801-.8c0-.297.16-.555.398-.692v.29c0 .242.16.402.403.402zm-.403-3.2h-12V4h12zm0 0"/>
</svg>
